X:192
T:Maid of Bath, The
M:6/8
L:1/8
B:Thompson's Compleat Collection of 200 Favourite Country Dances, vol. 3 (London, 1773)
Z:Transcribed and edited by Flynn Titford-Mock, 2007
Z:abc's:AK/Fiddler's Companion
K:A
e | aga ecA | fdB ecA | a3 ecA | G2A BGE | aga ecA | fe^d e2a | bge af^d | e3 E2 :|
|: e | ecA dgb | dcB cea | cBA G2A | BGE "tr"E3 | FdF EcE | DED [C2c2]f | edc BAG | A3-[A,2A2] :|

